X:20000
T:Tankard of Ale
R:Triple Hornpipe
C:Trad.
O:England
Z:Paul Hardy's Possible Tunebook 2015 (see www.paulhardy.net). Creative Commons cc by-nc-sa licenced.
M:3/2
L:1/8
Q:1/2=60
K:C
%%MIDI beatstring fpppmpppmppp
%%MIDI gchord czfzczfzczfz
|:"Am"(ABcA) "F"(fedc) "Dm"(dcBA)|"G"(G2 .B2) (B2"Em"E2) (G2B2)|"Am"(ABcA) "F"(fedc) "Dm"(dcBA)|"Em"(E2 "Am".A2) (A2"Em"E2)"Am"(C2A,2):|
|:"Am"(agae) "F"(fedc) "G"(BcdB)|"Em"(gfgd) (edcB) "Am"(ABcA)|(agae) "F"(fedc) "G"(BcdB)|"Em"(E2 "Am".A2) (A2"Em"E2)"Am"(C2A,2):|
|:"Am"(ecAc) "Dm"(fdBd) "Am"(ecAc)|"G"(G2 .B2) (B2"Em"E2) (G2B2)|"Am"(ecAc) "Dm"(fdBd) "Am"(ecAc)|"Em"(E2 "Am".A2) (A2"Em"E2)"Am"(C2A,2):|]


